X:0221
M:2/4
L:1/8
Q:1/4=128
K:G
gf/e/   dc|Bc       d2         |gf/e/    dc      |Bg TA2      |
g(f/e/) dc|BG      Tc2         |BA/G/    F/G/A/B/|G2  G2     :|

